src/assets/fleet-icons/delete.svg

<svg width="22" height="22" viewBox="0 0 22 22" fill="none" xmlns="http://www.w3.org/2000/svg">
    <path
        d="M6.1875 7.10416L6.95856 15.9713C7.04094 16.9187 7.83403 17.6458 8.785 17.6458H13.215C14.166 17.6458 14.9591 16.9187 15.0414 15.9713L15.8125 7.10416"
        stroke="currentColor" stroke-linecap="round" stroke-linejoin="round" />
    <path
        d="M8.9375 6.87499V6.18749C8.9375 5.17497 9.75831 4.35416 10.7708 4.35416H11.2292C12.2417 4.35416 13.0625 5.17497 13.0625 6.18749V6.87499"
        stroke="currentColor" stroke-linecap="round" stroke-linejoin="round" />
    <path d="M4.58334 7.10416H17.4167" stroke="currentColor" stroke-linecap="round" stroke-linejoin="round" />
</svg>

<svg width="22" height="22" fill="none" xmlns="http://www.w3.org/2000/svg">
    <path
        d="m6.188 7.104.77 8.867a1.833 1.833 0 0 0 1.827 1.675h4.43c.951 0 1.744-.727 1.826-1.675l.771-8.867m-6.874-.229v-.688c0-1.012.82-1.833 1.833-1.833h.458c1.013 0 1.834.821 1.834 1.833v.688m-8.48.229h12.834"
        stroke="currentColor" stroke-linecap="round" stroke-linejoin="round" />
</svg>
